X:68
T:I Will If I Can
Z: id:dc-jig-56
M:6/8
L:1/8
K:G Major
D|GBd gdB|ded d2B|GBd gdB|ABA A2D|!
GBd gdB|def gfg|edB cBA|BGF G2:|!
d|g2d edB|ded def|g2d edB|ABA A2d|!
g2d edB|def gfg|edB cBA|BGF G2:|!

